X:1
T:Christ, the Rock, Stands Fast
T:Christ, the Rock, Stands Fast
T:Edmund Simon Lorenz
T:Edmund Simon Lorenz, 1903
T:Public Domain Courtesy of the Cyber Hymnal™
T:Public Domain Courtesy of the Cyber Hymnal™
C:Edmund Simon Lorenz
Z:Public Domain
Z:Courtesy of the Cyber Hymnal™
%%score ( 1 2 ) ( 3 4 )
L:1/8
Q:1/4=98
M:4/4
K:Ab
V:1 treble 
V:2 treble 
V:3 bass 
V:4 bass 
V:1
 [CE][CA] | [Ec]2 [Ec]2 [Ec][EB][EA][EB] | [FA]2 [DF]2 [CE]2 [CE][EA] | [EG]2 [EA]2 [EB]E[EA][EB] | %4
w: 1.~In my|soul oft ris- es, bring- ing|pain and woe, The al-|arm- ing ques- tion, “Am I|
w: 2.~When be-|fore me mar- shaled all my|sins a- rise, Swords of|flame that bar the gates of|
w: 3.~While life’s|storm is rag- ing, heap- ing|up hope’s wrecks, While de-|lights al- lure and sore temp-|
 [Ec]2 [Ec]2 !fermata![EB]2 [EA][EB] | [Ec]2 [Ec]2 [Ec][EB][EA][EB] | [FA]2 [DF]2 [CE]2 [CE][CE] | %7
w: saved or no?” Then the|Word brings com- fort, it doth|ful- ly show: Tho’ my|
w: par- a- dise; Tho’ op-|pressed with doubt- ings, still my|soul re- plies, “Tho’ my|
w: ta- tions vex, I will|cry, tho’ fears and doubts my|soul per- plex, “Tho’ my|
 [EA]2 [EB]2 [Ec]!fermata![_Ge][Fd][FB] | [EA]2 [DG]2 !fermata![CA]2 z ||"^Refrain" [Ec] | %10
w: faith may wa- ver, Christ, the|Rock, stands fast.||
w: faith may wa- ver, Christ, the|Rock, stands fast!”|The|
w: faith may wa- ver, Christ, the|Rock, stands fast!”||
 [Ae]2 [Ae]2 [Ae]3 A | [Ac]2 [Ac]2 [Ac]3 z | [FA]>[FB] [FA][DF] [CE][CA][EA][Ec] | %13
w: |||
w: Rock stands fast! the|Rock stands fast!|Tho’ my faith may wa- ver, Christ, the|
w: |||
 [Ec]2 [EB]2 [EB]3 [Ec] | [Ae]2 [Ae]2 [Ae]3 A | [Ac]2 [Ac]2 [Ac]3 z | %16
w: |||
w: Rock, stands fast! The|Rock stands fast! the|Rock stands fast!|
w: |||
 [FA]>[FB] [FA][DF] [CE]2 [EA][Fd] | [Ec]2 [DB]2 !fermata![CA]2 |] %18
w: ||
w: Glo- ry be to God, Christ, the|Rock, stands fast!|
w: ||
V:2
 x2 | x8 | x8 | x5 E x2 | x8 | x8 | x8 | x8 | x7 || x | x7 A | x8 | x8 | x8 | x7 A | x8 | x8 | %17
 x6 |] %18
V:3
 [A,,A,][A,,A,] | [A,,A,]2 [A,,A,]2 [A,,A,][B,,G,][C,A,][A,,C] | %2
 [D,D]2 [D,A,]2 [A,,A,]2 [A,,A,][C,A,] | [E,B,]2 [E,C]2 [E,D][D,G,][C,A,][B,,G,] | %4
 [A,,A,]2 [C,A,]2 !fermata!G,2 [C,A,][B,,G,] | [A,,A,]2 [A,,A,]2 [A,,A,][B,,G,]A,[A,,C] | %6
 [D,D]2 [D,A,]2 [A,,A,]2 [A,,A,][A,,A,] | [C,A,]2 [E,G,]2 A,!fermata![C,A,][D,A,][D,D] | %8
 [E,C]2 [E,B,]2 !fermata![A,,A,]2 z || A, | [A,C]2 [A,C]2 [A,C]3 [A,,A,C] | %11
 [A,,A,E]2 [A,,A,E]2 [A,,A,E]3 z | [D,D]>[D,D] [D,D][D,A,] [A,,A,][A,,A,][C,A,][A,,A,] | %13
 [E,A,]2 [E,G,]2 [E,G,]3 A, | [A,C]2 [A,C]2 [A,C]3 [A,,A,C] | [A,,A,E]2 [A,,A,E]2 [A,,A,E]3 z | %16
 [D,D]>[D,D] [D,D][D,A,] [A,,A,]2 [C,A,][D,A,] | [E,A,]2 [E,G,]2 !fermata![A,,A,]2 |] %18
V:4
 x2 | x8 | x8 | x8 | x4 E,>D, x2 | x8 | x8 | x4 A, x3 | x7 || A, | x8 | x8 | x8 | x7 A, | x8 | x8 | %16
 x8 | x6 |] %18

